alura/assets/api/programas/oracle-one.svg

<svg width="119" height="119" viewBox="0 0 119 119" fill="none" xmlns="http://www.w3.org/2000/svg">
<path d="M60.2197 56.2262C57.7942 56.2262 55.9567 55.4912 54.6704 54.0212C53.3842 52.5512 52.7227 50.4564 52.7227 47.7369C52.7227 45.0174 53.3842 42.9226 54.6704 41.4526C55.9567 39.9826 57.831 39.2476 60.2197 39.2476C62.6085 39.2476 64.446 39.9826 65.769 41.4526C67.0553 42.9226 67.7168 45.0174 67.7168 47.7369C67.7168 50.4564 67.0553 52.5512 65.769 54.0212C64.4828 55.4912 62.6085 56.2262 60.2197 56.2262ZM60.2197 53.8007C63.3068 53.8007 64.8503 51.7794 64.8503 47.7001C64.8503 45.7156 64.446 44.1721 63.6743 43.1798C62.9025 42.1508 61.7265 41.6363 60.2197 41.6363C58.713 41.6363 57.537 42.1508 56.7652 43.1798C55.9934 44.2089 55.5892 45.7156 55.5892 47.7001C55.5892 51.7794 57.1327 53.8007 60.2197 53.8007Z" fill="#67605B"/>
<path d="M70.5468 55.9345V39.5071H73.1928L81.0574 51.304V39.5071H83.8504V55.9345H81.2044L73.3398 44.1744V55.9345H70.5468Z" fill="#67605B"/>
<path d="M87.2662 55.9345V39.5071H97.6666V41.9326H90.096V46.4529H97.0418V48.8417H90.096V53.5457H97.9238V55.9345H87.2662Z" fill="#67605B"/>
<path d="M56.761 70.3024C55.8055 70.3024 55.0337 70.0084 54.5192 69.3836C54.0047 68.7956 53.7474 67.9136 53.7474 66.7744C53.7474 65.6351 54.0047 64.7899 54.5192 64.1651C55.0337 63.5403 55.8055 63.2463 56.761 63.2463C57.7165 63.2463 58.4882 63.5403 59.0027 64.1651C59.5172 64.7899 59.7745 65.6351 59.7745 66.7744C59.7745 67.9136 59.5172 68.7589 59.0027 69.3836C58.4515 70.0084 57.7165 70.3024 56.761 70.3024ZM56.761 69.5307C57.4592 69.5307 57.9737 69.3101 58.3412 68.8324C58.7087 68.3546 58.8925 67.6931 58.8925 66.7744C58.8925 65.8556 58.7087 65.1941 58.3412 64.7164C57.9737 64.2386 57.4592 64.0181 56.761 64.0181C55.3277 64.0181 54.6294 64.9369 54.6294 66.7744C54.6294 67.6931 54.8132 68.3546 55.1807 68.8324C55.5115 69.3101 56.0627 69.5307 56.761 69.5307Z" fill="#67605B"/>
<path d="M60.9507 70.1957V65.3079H61.5387L61.7224 66.2266C62.0532 65.6019 62.4942 65.3079 63.0822 65.3079C63.1925 65.3079 63.3027 65.3079 63.413 65.3446V66.0796H63.1925C62.825 66.0796 62.5309 66.1899 62.3104 66.3736C62.0899 66.5574 61.9062 66.8514 61.8327 67.2556V70.1957H60.9507V70.1957Z" fill="#67605B"/>
<path d="M67.267 70.1942L67.12 69.4225C66.7158 70.0105 66.1645 70.3045 65.503 70.3045C65.0253 70.3045 64.621 70.1575 64.327 69.9002C64.033 69.6062 63.886 69.2387 63.886 68.7977C63.886 68.2832 64.0697 67.8789 64.4005 67.6217C64.768 67.3277 65.2458 67.1807 65.8705 67.1807H67.0098V66.8867C67.0098 66.5192 66.9363 66.2987 66.7893 66.1517C66.6423 66.0047 66.385 65.9312 66.0175 65.9312C65.797 65.9312 65.5398 65.9679 65.2458 66.0047C64.9885 66.0414 64.6577 66.1517 64.327 66.2619V65.5637C64.5475 65.4534 64.8415 65.3799 65.1355 65.3064C65.4295 65.2329 65.7235 65.2329 65.9808 65.2329C67.1935 65.2329 67.8183 65.7842 67.8183 66.8867V70.231H67.267V70.1942ZM65.5765 69.643C65.8705 69.643 66.1278 69.5695 66.385 69.3857C66.6423 69.2019 66.826 68.9814 66.973 68.7242V67.8054H65.9073C65.4663 67.8054 65.1723 67.8789 64.9518 68.0259C64.7312 68.1729 64.6577 68.4302 64.6577 68.7242C64.6577 69.0182 64.7312 69.2387 64.8783 69.3857C65.0988 69.5327 65.3193 69.643 65.5765 69.643Z" fill="#67605B"/>
<path d="M72.6427 69.2778V69.976C72.2384 70.1965 71.7607 70.3068 71.1727 70.3068C70.4009 70.3068 69.8497 70.0863 69.4822 69.6453C69.1147 69.2043 68.8942 68.5428 68.8942 67.6975C68.8942 66.889 69.1147 66.301 69.5189 65.86C69.9232 65.419 70.5112 65.1985 71.2462 65.1985C71.7239 65.1985 72.1282 65.3087 72.5325 65.4925V66.1907C72.1282 65.9702 71.7239 65.8967 71.3932 65.8967C70.3274 65.8967 69.7762 66.4847 69.7762 67.6975C69.7762 68.359 69.8864 68.8368 70.1437 69.1308C70.4009 69.4248 70.7684 69.6085 71.3197 69.6085C71.5402 69.6085 71.7607 69.5718 71.9812 69.535C72.1282 69.4615 72.3854 69.388 72.6427 69.2778Z" fill="#67605B"/>
<path d="M73.6283 70.1942V63.8364L73.1505 63.5424V63.2117H74.4735V70.231H73.6283V70.1942Z" fill="#67605B"/>
<path d="M79.5848 69.9393C79.401 70.0495 79.1805 70.123 78.8865 70.1965C78.5925 70.27 78.2618 70.3068 77.931 70.3068C77.1592 70.3068 76.5712 70.0863 76.167 69.6453C75.7627 69.2043 75.579 68.5795 75.579 67.6975C75.579 66.889 75.7627 66.2642 76.1302 65.8232C76.4977 65.3822 77.049 65.1985 77.7473 65.1985C79.107 65.1985 79.8053 65.9335 79.8053 67.4403V67.9915H76.4242C76.461 68.5428 76.608 68.947 76.8652 69.2043C77.1225 69.4615 77.49 69.5718 78.0045 69.5718C78.2985 69.5718 78.5558 69.535 78.813 69.4983C79.0703 69.4248 79.3275 69.3513 79.5848 69.241V69.9393V69.9393ZM77.7473 65.8967C77.343 65.8967 77.0122 66.007 76.7917 66.2642C76.5712 66.5215 76.4242 66.8523 76.4242 67.33H78.9968C78.9968 66.8155 78.8865 66.448 78.7028 66.2275C78.519 66.007 78.1883 65.8967 77.7473 65.8967Z" fill="#67605B"/>
<path d="M83.1814 70.1924V63.3936H83.9899L87.6282 68.7591V63.3936H88.4735V70.1924H87.6649L84.0267 64.8268V70.1924H83.1814Z" fill="#67605B"/>
<path d="M93.6618 69.9393C93.478 70.0495 93.2575 70.123 92.9635 70.1965C92.6695 70.27 92.3388 70.3068 92.008 70.3068C91.2363 70.3068 90.6483 70.0863 90.244 69.6453C89.8398 69.2043 89.656 68.5795 89.656 67.6975C89.656 66.889 89.8398 66.2642 90.2073 65.8232C90.5748 65.3822 91.126 65.1985 91.8243 65.1985C93.184 65.1985 93.8823 65.9335 93.8823 67.4403V67.9915H90.5013C90.538 68.5428 90.685 68.947 90.9423 69.2043C91.1995 69.4615 91.567 69.5718 92.0815 69.5718C92.3755 69.5718 92.6328 69.535 92.89 69.4983C93.1473 69.4248 93.4045 69.3513 93.6618 69.241V69.9393V69.9393ZM91.8243 65.8967C91.42 65.8967 91.0893 66.007 90.8688 66.2642C90.6483 66.5215 90.5013 66.8523 90.5013 67.33H93.0738C93.0738 66.8155 92.9635 66.448 92.7798 66.2275C92.596 66.007 92.2653 65.8967 91.8243 65.8967Z" fill="#67605B"/>
<path d="M94.3534 70.196L96.1174 67.697L94.4269 65.345H95.3824L96.6319 67.1825L97.9182 65.345H98.7634L97.0729 67.697L98.8369 70.2328H97.8814L96.5217 68.2115L95.1251 70.2328H94.3534V70.196Z" fill="#67605B"/>
<path d="M100.052 68.7238V66.0043H99.2069V65.5633L100.052 65.2693L100.383 63.9463H100.897V65.3061H101.963V66.0043H100.897V68.6871C100.897 69.2383 101.118 69.4956 101.596 69.4956C101.669 69.4956 101.743 69.4956 101.816 69.4956C101.89 69.4956 101.963 69.4956 102 69.4588V70.1939C101.926 70.2306 101.816 70.2306 101.743 70.2306C101.669 70.2306 101.559 70.2306 101.449 70.2306C100.971 70.2306 100.603 70.1204 100.383 69.8631C100.199 69.6058 100.052 69.2383 100.052 68.7238Z" fill="#67605B"/>
<path d="M54.0071 81.0376V74.2388H58.1966V74.9738H54.8891V77.2155H57.9394V77.9506H54.8891V80.2658H58.3069V81.0008H54.0071V81.0376Z" fill="#67605B"/>
<path d="M62.9376 81.0352L62.7906 80.2634C62.6069 80.5574 62.3496 80.7779 62.0924 80.9249C61.7984 81.0719 61.5044 81.1454 61.1369 81.1454C60.5121 81.1454 59.9976 80.9249 59.6301 80.4839C59.2626 80.0429 59.0789 79.4182 59.0789 78.6097C59.0789 77.8012 59.2626 77.1764 59.6301 76.7354C59.9976 76.2944 60.5121 76.0739 61.1736 76.0739C61.4309 76.0739 61.7249 76.1106 61.9821 76.2209C62.2394 76.3311 62.4599 76.4781 62.6804 76.6619V74.0159H63.5257V81.0352H62.9376V81.0352ZM59.9609 78.6097C59.9609 79.1977 60.0711 79.6754 60.2916 79.9694C60.5121 80.3002 60.8429 80.4472 61.2839 80.4472C61.5779 80.4472 61.8351 80.3737 62.0924 80.2267C62.3496 80.0797 62.5334 79.8592 62.6804 79.5652V77.3969C62.3129 76.9559 61.8351 76.7354 61.3206 76.7354C60.8796 76.7354 60.5489 76.8824 60.2916 77.2132C60.0711 77.5439 59.9609 77.9849 59.9609 78.6097Z" fill="#67605B"/>
<path d="M64.8489 79.1631V76.1495H65.6941V79.1263C65.6941 79.5306 65.7676 79.8613 65.9514 80.0818C66.1351 80.3023 66.3924 80.4126 66.7599 80.4126C67.0539 80.4126 67.3112 80.3023 67.6052 80.1186C67.8624 79.8981 68.0462 79.6408 68.1932 79.3101V76.1128H69.0384V81.0006H68.4504L68.3034 80.1553C68.1197 80.4493 67.8624 80.6698 67.5684 80.8536C67.2744 81.0373 66.9436 81.1108 66.5761 81.1108C66.0249 81.1108 65.6206 80.9271 65.3266 80.5963C64.9959 80.3023 64.8489 79.8246 64.8489 79.1631Z" fill="#67605B"/>
<path d="M73.8519 80.1164V80.8147C73.4477 81.0352 72.9699 81.1454 72.3819 81.1454C71.6102 81.1454 71.0589 80.9249 70.6914 80.4839C70.3239 80.0429 70.1034 79.3814 70.1034 78.5361C70.1034 77.7276 70.3239 77.1396 70.7281 76.6986C71.1324 76.2576 71.7204 76.0371 72.4554 76.0371C72.9332 76.0371 73.3374 76.1474 73.7417 76.3311V77.0294C73.3374 76.8089 72.9332 76.7354 72.6024 76.7354C71.5367 76.7354 70.9854 77.3234 70.9854 78.5361C70.9854 79.1976 71.0957 79.6754 71.3529 79.9694C71.6102 80.2634 71.9777 80.4472 72.5289 80.4472C72.7494 80.4472 72.9699 80.4104 73.1904 80.3737C73.3742 80.3002 73.5947 80.2267 73.8519 80.1164Z" fill="#67605B"/>
<path d="M77.9254 81.035L77.7783 80.2633C77.3741 80.8513 76.8228 81.1453 76.1613 81.1453C75.6836 81.1453 75.2793 80.9983 74.9853 80.741C74.6913 80.447 74.5443 80.0795 74.5443 79.6385C74.5443 79.124 74.7281 78.7198 75.0588 78.4625C75.4263 78.1685 75.9041 78.0215 76.5288 78.0215H77.6681V77.7275C77.6681 77.36 77.5946 77.1395 77.4476 76.9925C77.3006 76.8455 77.0433 76.772 76.6758 76.772C76.4553 76.772 76.1981 76.8087 75.9041 76.8455C75.6468 76.8822 75.3161 76.9925 74.9853 77.1027V76.4045C75.2058 76.2942 75.4998 76.2207 75.7938 76.1472C76.0878 76.0737 76.3818 76.0737 76.6391 76.0737C77.8518 76.0737 78.4766 76.625 78.4766 77.7275V81.0718H77.9254V81.035ZM76.2716 80.4838C76.5656 80.4838 76.8228 80.4103 77.0801 80.2265C77.3373 80.0428 77.5211 79.8223 77.6681 79.565V78.6463H76.6023C76.1613 78.6463 75.8673 78.7198 75.6468 78.8668C75.4263 79.0138 75.3528 79.271 75.3528 79.565C75.3528 79.859 75.4263 80.0795 75.5733 80.2265C75.7571 80.3735 75.9776 80.4838 76.2716 80.4838Z" fill="#67605B"/>
<path d="M80.0217 79.5659V76.8464H79.1764V76.4053L80.0217 76.1113L80.3524 74.7883H80.8669V76.1481H81.9327V76.8464H80.8302V79.5291C80.8302 80.0804 81.0507 80.3376 81.5284 80.3376C81.6019 80.3376 81.6754 80.3376 81.7489 80.3376C81.8224 80.3376 81.8959 80.3376 81.9327 80.3009V81.0359C81.8592 81.0726 81.7489 81.0726 81.6754 81.0726C81.6019 81.0726 81.4917 81.0726 81.3814 81.0726C80.9037 81.0726 80.5362 80.9624 80.3157 80.7051C80.1319 80.4479 80.0217 80.0804 80.0217 79.5659Z" fill="#67605B"/>
<path d="M83.1884 81.0365V76.8102L82.7107 76.5162V76.1854H84.0337V81.0732H83.1884V81.0365ZM82.9679 75.0094V74.2744H83.997V75.0462H82.9679V75.0094Z" fill="#67605B"/>
<path d="M87.4128 81.1453C86.6778 81.1453 86.0898 80.9248 85.6855 80.4838C85.2813 80.0428 85.0608 79.418 85.0608 78.6095C85.0608 77.801 85.2813 77.1762 85.6855 76.7352C86.0898 76.2942 86.6778 76.0737 87.4128 76.0737C88.1478 76.0737 88.7358 76.2942 89.1401 76.7352C89.5443 77.1762 89.7648 77.801 89.7648 78.6095C89.7648 79.418 89.5443 80.006 89.1401 80.4838C88.7358 80.9248 88.1478 81.1453 87.4128 81.1453ZM87.4128 80.447C87.8906 80.447 88.2581 80.3 88.5153 79.9693C88.7726 79.6385 88.8828 79.1975 88.8828 78.5728C88.8828 77.948 88.7726 77.507 88.5153 77.1762C88.2581 76.8455 87.8906 76.6985 87.4128 76.6985C86.9351 76.6985 86.5676 76.8455 86.3103 77.1762C86.053 77.507 85.9428 77.948 85.9428 78.5728C85.9428 79.1975 86.053 79.6385 86.3103 79.9693C86.5676 80.3 86.9351 80.447 87.4128 80.447Z" fill="#67605B"/>
<path d="M90.8296 81.0352V76.1474H91.4176L91.5646 76.9926C91.7851 76.6986 92.0056 76.4781 92.3364 76.2944C92.6671 76.1106 92.9611 76.0371 93.3654 76.0371C93.9166 76.0371 94.3576 76.2209 94.6516 76.5516C94.9456 76.8824 95.0926 77.3601 95.0926 78.0216V81.0352H94.2474V78.0584C94.2474 77.2131 93.8799 76.7721 93.1449 76.7721C92.8509 76.7721 92.5569 76.8824 92.2996 77.0661C92.0424 77.2499 91.8586 77.5071 91.7116 77.8379V81.0352H90.8296Z" fill="#67605B"/>
<path d="M37.323 64.6822C32.9129 65.2702 17 64.3147 17 64.3147L18.0658 57.6996C18.0658 57.6261 18.1393 57.5526 18.2128 57.5159C18.7273 57.4056 20.8955 56.9646 26.7388 56.9646C32.4719 56.9646 39.3442 57.3689 41.5125 57.5159C41.9168 57.5526 42.2108 57.6629 42.2108 58.0671V60.2354C42.2475 62.6977 42.6518 63.9472 37.323 64.6822Z" fill="#81A378"/>
<path d="M42.6159 54.8305C42.5792 54.904 42.5057 54.9408 42.3954 54.9408C41.5869 55.0878 36.9931 55.8228 32.3993 55.3818C28.32 54.9775 25.4535 54.904 24.498 54.904C24.3142 54.904 24.1672 54.7203 24.1672 54.5365L24.4245 50.2C24.5347 48.73 26.7765 47.6275 28.2465 47.554L43.2407 46.9292C43.3877 46.9292 43.5347 47.0027 43.5714 47.1497C43.7184 47.554 44.0124 48.4727 44.0492 50.1632C44.1227 52.7358 42.9467 54.4263 42.6159 54.8305Z" fill="#82B1B4"/>
<path d="M43.1623 45.0928L32.6149 45.6441C31.4757 45.7543 30.5202 44.5416 30.7039 43.2186L31.4389 38H42.317C44.1178 38.0368 43.1623 45.0928 43.1623 45.0928Z" fill="#DA8A40"/>
<rect x="1" y="1" width="117" height="117" rx="58.5" stroke="#DA8A40" stroke-width="0.5"/>
</svg>

<svg xmlns="http://www.w3.org/2000/svg" fill="none" viewBox="0 0 119 119"><path fill="#67605B" d="M60.22 56.226c-2.426 0-4.263-.735-5.55-2.205-1.286-1.47-1.947-3.565-1.947-6.284 0-2.72.661-4.814 1.947-6.284 1.287-1.47 3.161-2.205 5.55-2.205s4.226.735 5.549 2.205c1.286 1.47 1.948 3.564 1.948 6.284 0 2.72-.662 4.814-1.948 6.284-1.286 1.47-3.16 2.205-5.55 2.205zm0-2.425c3.087 0 4.63-2.022 4.63-6.1 0-1.985-.404-3.529-1.176-4.521-.771-1.03-1.947-1.544-3.454-1.544-1.507 0-2.683.515-3.455 1.544-.772 1.029-1.176 2.536-1.176 4.52 0 4.08 1.544 6.1 4.63 6.1zm10.327 2.133V39.508h2.646l7.864 11.797V39.507h2.793v16.428h-2.646l-7.864-11.76v11.76h-2.793zm16.719 0V39.508h10.4v2.426h-7.57v4.52h6.946v2.389h-6.946v4.704h7.828v2.389H87.266zM56.761 70.302c-.956 0-1.727-.294-2.242-.918-.514-.588-.772-1.47-.772-2.61 0-1.139.258-1.984.772-2.609.515-.625 1.287-.919 2.242-.919.956 0 1.727.294 2.242.92.514.624.772 1.47.772 2.608 0 1.14-.258 1.985-.772 2.61-.551.624-1.286.918-2.242.918zm0-.771c.698 0 1.213-.22 1.58-.699.368-.477.551-1.139.551-2.058 0-.918-.183-1.58-.55-2.058-.368-.477-.883-.698-1.581-.698-1.433 0-2.132.919-2.132 2.756 0 .92.184 1.58.552 2.058.33.478.882.699 1.58.699zm4.189.665v-4.888h.589l.183.919c.331-.625.772-.92 1.36-.92.11 0 .22 0 .331.038v.735h-.22c-.368 0-.662.11-.883.294-.22.183-.404.477-.477.882v2.94h-.882zm6.317-.002l-.147-.772c-.404.588-.956.883-1.617.883-.478 0-.882-.148-1.176-.405a1.496 1.496 0 01-.441-1.102c0-.515.184-.92.514-1.176.368-.294.846-.441 1.47-.441h1.14v-.294c0-.368-.074-.588-.22-.735-.148-.147-.405-.22-.773-.22-.22 0-.477.036-.771.073-.257.036-.588.147-.919.257v-.698c.22-.11.514-.184.808-.258.294-.073.588-.073.846-.073 1.213 0 1.837.551 1.837 1.654v3.344h-.551v-.037zm-1.69-.551c.294 0 .55-.073.808-.257.257-.184.441-.405.588-.662v-.919h-1.066c-.44 0-.735.074-.955.22-.22.148-.294.405-.294.7 0 .293.073.514.22.66.22.148.441.258.698.258zm7.066-.365v.698c-.405.22-.882.33-1.47.33-.772 0-1.323-.22-1.69-.66-.368-.442-.589-1.103-.589-1.948 0-.809.22-1.397.625-1.838.404-.441.992-.662 1.727-.662.478 0 .882.11 1.287.295v.698a2.387 2.387 0 00-1.14-.294c-1.066 0-1.617.588-1.617 1.8 0 .662.11 1.14.368 1.434.257.294.624.478 1.176.478.22 0 .44-.037.661-.074.147-.073.404-.147.662-.257zm.985.916v-6.358l-.478-.294v-.33h1.323v7.019h-.845v-.037zm5.957-.254c-.184.11-.404.183-.698.257-.294.073-.625.11-.956.11-.772 0-1.36-.22-1.764-.662-.404-.44-.588-1.066-.588-1.947 0-.809.184-1.434.551-1.875.368-.44.919-.624 1.617-.624 1.36 0 2.058.734 2.058 2.241v.552h-3.38c.036.55.183.955.44 1.212.258.258.625.368 1.14.368.294 0 .55-.037.808-.074.257-.073.514-.147.772-.257v.698zm-1.838-4.043c-.404 0-.735.11-.955.367-.22.258-.368.588-.368 1.066h2.573c0-.514-.11-.882-.294-1.102-.184-.221-.515-.331-.956-.331zm5.434 4.295v-6.798h.809l3.638 5.365v-5.365h.846v6.798h-.81l-3.637-5.365v5.365h-.846zm10.481-.252c-.184.11-.405.183-.699.257a4.02 4.02 0 01-.955.11c-.772 0-1.36-.22-1.764-.662-.404-.44-.588-1.066-.588-1.947 0-.809.184-1.434.551-1.875.368-.44.919-.624 1.617-.624 1.36 0 2.058.734 2.058 2.241v.552h-3.38c.036.55.183.955.44 1.212.258.258.625.368 1.14.368.294 0 .55-.037.808-.074.257-.073.514-.147.772-.257v.698zm-1.838-4.043c-.404 0-.735.11-.955.367-.22.258-.368.588-.368 1.066h2.573c0-.514-.11-.882-.294-1.102-.184-.221-.515-.331-.956-.331zm2.529 4.299l1.764-2.499-1.69-2.352h.955l1.25 1.838 1.286-1.838h.845l-1.69 2.352 1.764 2.536h-.956l-1.36-2.022-1.396 2.022h-.772v-.037zm5.699-1.472v-2.72h-.845v-.44l.845-.295.331-1.323h.514v1.36h1.066v.698h-1.066v2.683c0 .551.221.809.699.809h.22c.074 0 .147 0 .184-.037v.735c-.074.037-.184.037-.257.037h-.294c-.478 0-.846-.11-1.066-.368-.184-.257-.331-.625-.331-1.14zM54.007 81.038v-6.8h4.19v.736h-3.308v2.242h3.05v.735h-3.05v2.315h3.418V81h-4.3v.037zm8.931-.003l-.147-.772a1.988 1.988 0 01-.699.662c-.294.147-.588.22-.955.22-.625 0-1.14-.22-1.507-.661-.367-.441-.551-1.066-.551-1.874 0-.809.184-1.434.551-1.875.368-.44.882-.661 1.544-.661.257 0 .55.037.808.147a2.8 2.8 0 01.698.44v-2.645h.846v7.02h-.588zM59.96 78.61c0 .588.11 1.065.33 1.36.221.33.552.477.993.477.294 0 .551-.073.808-.22.258-.147.441-.368.588-.662v-2.168c-.367-.441-.845-.662-1.36-.662-.44 0-.771.147-1.028.478-.22.33-.331.772-.331 1.397zm4.889.553V76.15h.845v2.976c0 .405.074.735.257.956.184.22.441.33.809.33.294 0 .551-.11.845-.293a2.19 2.19 0 00.588-.809v-3.197h.845V81h-.588l-.147-.846c-.183.294-.44.515-.735.699-.294.183-.624.257-.992.257-.551 0-.955-.184-1.25-.515-.33-.294-.477-.771-.477-1.433zm9.003.953v.699c-.404.22-.882.33-1.47.33-.772 0-1.323-.22-1.69-.661-.368-.441-.589-1.103-.589-1.948 0-.808.22-1.396.625-1.837.404-.441.992-.662 1.727-.662.478 0 .882.11 1.287.294v.698a2.387 2.387 0 00-1.14-.294c-1.065 0-1.617.588-1.617 1.801 0 .662.11 1.14.368 1.433.257.294.625.478 1.176.478.22 0 .44-.037.661-.073.184-.074.405-.147.662-.258zm4.073.919l-.147-.772c-.404.588-.955.882-1.617.882-.477 0-.882-.147-1.176-.404a1.496 1.496 0 01-.44-1.103c0-.514.183-.918.514-1.175.367-.294.845-.441 1.47-.441h1.14v-.294c0-.368-.074-.588-.221-.735-.147-.147-.405-.221-.772-.221-.22 0-.478.037-.772.073-.257.037-.588.148-.919.258v-.698c.22-.11.515-.184.809-.258.294-.073.588-.073.845-.073 1.213 0 1.838.551 1.838 1.654v3.344h-.552v-.037zm-1.653-.551c.294 0 .55-.074.808-.257.257-.184.441-.405.588-.662v-.919h-1.066c-.44 0-.735.074-.955.22-.22.148-.294.405-.294.699 0 .294.073.514.22.662.184.147.405.257.699.257zm3.75-.918v-2.72h-.846v-.44l.846-.295.33-1.323h.515v1.36h1.066v.698H80.83v2.683c0 .551.22.809.698.809h.22c.074 0 .148 0 .185-.037v.735c-.074.037-.184.037-.258.037h-.294c-.477 0-.845-.11-1.065-.368-.184-.257-.294-.625-.294-1.14zm3.166 1.471V76.81l-.477-.294v-.33h1.323v4.887h-.846v-.036zm-.22-6.028v-.735h1.029v.772h-1.03v-.037zm4.445 6.136c-.735 0-1.323-.22-1.727-.661-.405-.441-.625-1.066-.625-1.874 0-.809.22-1.434.624-1.875.405-.44.993-.661 1.728-.661s1.323.22 1.727.661c.404.441.625 1.066.625 1.874 0 .809-.22 1.397-.625 1.875-.404.44-.992.661-1.727.661zm0-.698c.478 0 .845-.147 1.102-.478.258-.33.368-.771.368-1.396 0-.625-.11-1.066-.368-1.397-.257-.33-.624-.478-1.102-.478-.478 0-.845.148-1.103.478-.257.331-.367.772-.367 1.397s.11 1.066.367 1.396c.258.331.625.478 1.103.478zm3.417.588v-4.888h.588l.147.846c.22-.294.44-.515.771-.699a1.958 1.958 0 011.03-.257c.55 0 .992.184 1.286.515.294.33.44.808.44 1.47v3.013h-.845v-2.977c0-.845-.367-1.286-1.102-1.286-.294 0-.588.11-.845.294-.258.184-.441.441-.588.772v3.197h-.882z"/><path fill="#81A378" d="M37.323 64.682C32.913 65.27 17 64.315 17 64.315l1.066-6.615c0-.074.073-.147.147-.184.514-.11 2.682-.551 8.526-.551 5.733 0 12.605.404 14.774.55.404.038.698.148.698.552v2.168c.037 2.463.44 3.712-4.888 4.447z"/><path fill="#82B1B4" d="M42.616 54.83c-.037.074-.11.11-.22.11-.81.148-5.403.883-9.997.442-4.079-.404-6.946-.478-7.901-.478-.184 0-.33-.184-.33-.368l.256-4.336c.11-1.47 2.352-2.573 3.823-2.646l14.994-.625c.147 0 .294.074.33.22.147.405.441 1.324.478 3.014.074 2.573-1.102 4.263-1.433 4.668z"/><path fill="#DA8A40" d="M43.162 45.093l-10.547.551c-1.14.11-2.095-1.102-1.911-2.425L31.439 38h10.878c1.8.037.845 7.093.845 7.093z"/><rect width="117" height="117" x="1" y="1" stroke="#DA8A40" stroke-width=".5" rx="58.5"/></svg>
